X:68
T:Spootiskerry
M:4/4
L:1/8
R:reel
K:G
DE|G2DE GDEG|DEGA B2AB|G2DE GABd|eged B2AB|
G2DE GDEG|DEGA B2AB|g2ed edBA|1 B2G2 G2DE:|2 B2G2 G2g2:|
g2ed edB2|BABG E2DE|GABd eged|
|1 B2A2 A2g2|g2ed edB2|BABG E2DE|GABd eged|B2G2 G2g2:|
|2 B2A2 A2DE|G2DE GDEG|DEGA B2AB|g2ed edBA|B2G2 G4||
